X:18852
T:Winter
M:6/8
K:C
"Slow" e/d/|\
c2G cde| f2e def| gag {g}f2e| {e}d3 z2e/d/|\
c2G cde| f2e def| gag efd| c3 z2::
B/c/|\
dec dac| egc def| efg age| {e}d3 z2e/f/|\
g2a g2c'| g2f efg| abc' efd| c4 z:|


